X:1
T:Title
%%score { 1 | 2 }
L:1/8
M:6/8
K:Eb
V:1 treble nm="Grand Piano"
V:2 bass 
V:1
 z3 z2[Q:1/4=90] E | EG[GB] [GB][EG][Ac] | [GB]3 G2 E | EG[GB] [GB][FA][EG] | %4
[M:5/8] [DF]-[DF]- [DF]3 |[M:1/8] [DF] |[M:3/4] GE GG cB | B3 =A2 G | FF FF G=A | %9
[M:5/8] [B,DB]-[B,DB]- [B,DB]3 |[M:1/8] [B,GB] |[M:3/4] [B,GB][B,GB] [B,GB][B,GB] [B,EG][G,B,E] | %12
 [G,B,E]3 [A,B,D]2 [B,GB] | [B,GB][B,GB] [B,GB][B,GB] [B,EG][G,E] |[M:5/8] [DF]-[DF]- [DF]3 | %15
[M:1/8] [DF] |[M:3/4] GG GE FG | A3 c2 c | BB B[GB] [FA][DF] |[M:5/8] E-E- E3 |[M:1/8] [GB] | %21
[M:3/4] [Ad]>[Ad] [Ad][Ad] [Ac][AB] | [Ge]>[GB] [GB] [GB]2 [GB] | [Ad]>[Ad] [Ad][Ad] [Ac][AB] | %24
 [GB]>[Ac] [GB] [EG]2 [GB] | [Ge]>[Ad] [Ge][EG] [EA][GB] |[M:7/8] e>de c3 c | %27
[M:3/4] [GB]>[Ac] [GB][GB] GE | D>E F E3 |] %29
V:2
 z3 z2 [E,G,] | [E,G,][E,B,E][E,B,] [E,B,][E,B,][E,E] | [E,E]3 [E,B,E]2 [E,G,] | %3
 [E,G,][E,B,E][E,B,] [E,B,][E,B,][E,B,] |[M:5/8] [B,,B,]-[B,,B,]- [B,,B,]3 |[M:1/8] [B,,B,] | %6
[M:3/4] [E,B,E][E,G,] [E,B,E][E,B,E] [E,A,E][E,G,E] | [F,D]3 [F,CE]2 [F,B,E] | %8
 [F,B,D][F,B,D] [F,B,D][F,=A,C] [F,CE][F,CE] |[M:5/8] B,,-B,,- B,,3 |[M:1/8] E, | %11
[M:3/4] E,E, E,E, E,E, | E,3 B,,2 E, | E,E, E,E, E,E, |[M:5/8] [B,,B,]-[B,,B,]- [B,,B,]3 | %15
[M:1/8] [B,,B,] |[M:3/4] [E,B,E][E,B,E] [E,B,E][G,B,] [F,B,D][E,B,E] | [A,CE]3 [A,EA]2 [A,EA] | %18
 [B,EG][B,EG] [B,EG][K:bass][B,,B,] [B,,B,][B,,A,] |[M:5/8] [E,G,]-[E,G,]- [E,G,]3 | %20
[M:1/8] [E,B,] |[M:3/4] [F,B,]>[F,B,] [F,B,][F,B,] [E,B,][F,B,] | [G,B,]>[E,E] [E,E] [E,E]2 [E,E] | %23
 [F,B,]>[F,B,] [F,B,][F,B,] [E,B,][E,B,] | [E,B,]>[E,B,] [E,B,] [E,B,]2 [E,B,] | %25
 [E,B,]>[E,B,] [E,B,][E,B,] [E,C][E,_D] |[M:7/8][K:treble] [A,CA]>[A,CA][A,CA] [A,EA]3 [A,EA] | %27
[M:3/4][K:bass] [E,E]>[E,E] [E,E][E,E] [E,B,E][E,G,B,] | [B,,F,B,]>[B,,G,B,] [B,,A,B,] [E,G,B,]3 |] %29

